**harm	**harte	**timestamp	**phrase	**leadinstrument	**kern
*M4/4	*M4/4	*	*	*	*
*D:	*D:	*	*	*	*D:
1r;	N	0	.	r	1r;
=1	=1	=1	=1	=1	=1
*>A_intro	*>A_intro	*>A_intro	*>A_intro	*>A_intro	*>A_intro
1I	D:maj	0.325	newline	guitar	1D 1f# 1a
=2	=2	=2	=2	=2	=2
2I	D:maj	2.167	.	guitar	2D 2f# 2a
4IV	G:maj	3.087	.	guitar	4G 4b 4dd
4-III	F:maj	3.548	.	guitar	4F 4a 4cc
=3	=3	=3	=3	=3	=3
1I	D:maj	4.008	.	guitar	1D 1f# 1a
=4	=4	=4	=4	=4	=4
2I	D:maj	5.85	.	guitar	2D 2f# 2a
4IV	G:maj	6.77	.	guitar	4G 4b 4dd
4-III	F:maj	7.231	.	guitar	4F 4a 4cc
=5	=5	=5	=5	=5	=5
1I	D:maj	7.691	newline	guitar	1D 1f# 1a
=6	=6	=6	=6	=6	=6
2I	D:maj	9.492	.	guitar	2D 2f# 2a
4IV	G:maj	10.393	.	guitar	4G 4b 4dd
4-III	F:maj	10.843	.	guitar	4F 4a 4cc
=7	=7	=7	=7	=7	=7
1I	D:maj	11.293	.	guitar	1D 1f# 1a
=8	=8	=8	=8	=8	=8
2I	D:maj	13.094	.	guitar	2D 2f# 2a
4IV	G:maj	13.995	.	guitar	4G 4b 4dd
4-III	F:maj	14.445	.	guitar	4F 4a 4cc
=9	=9	=9	=9	=9	=9
1I	D:maj	14.895	newline	guitar	1D 1f# 1a
=10	=10	=10	=10	=10	=10
2I	D:maj	16.706	.	guitar	2D 2f# 2a
4IV	G:maj	17.611	.	guitar	4G 4b 4dd
4-III	F:maj	18.064	.	guitar	4F 4a 4cc
=11	=11	=11	=11	=11	=11
1I	D:maj	18.517	.	guitar	1D 1f# 1a
=12	=12	=12	=12	=12	=12
2I	D:maj	20.327	.	guitar	2D 2f# 2a
4IV	G:maj	21.233	.	guitar	4G 4b 4dd
4-III	F:maj	21.685	.	guitar	4F 4a 4cc
=13	=13	=13	=13	=13	=13
*>A_verse	*>A_verse	*>A_verse	*>A_verse	*>A_verse	*>A_verse
1I	D:maj	22.138	newline	voice	1D 1f# 1a
=14	=14	=14	=14	=14	=14
2I	D:maj	23.937	.	voice	2D 2f# 2a
4IV	G:maj	24.837	.	voice	4G 4b 4dd
4-III	F:maj	25.287	.	voice	4F 4a 4cc
=15	=15	=15	=15	=15	=15
1I	D:maj	25.737	.	voice	1D 1f# 1a
=16	=16	=16	=16	=16	=16
2I	D:maj	27.537	.	voice	2D 2f# 2a
4IV	G:maj	28.436	.	voice	4G 4b 4dd
4-III	F:maj	28.886	.	voice	4F 4a 4cc
=17	=17	=17	=17	=17	=17
1I	D:maj	29.336	newline	voice	1D 1f# 1a
=18	=18	=18	=18	=18	=18
2I	D:maj	31.113	.	voice	2D 2f# 2a
4IV	G:maj	32.002	.	voice	4G 4b 4dd
4-III	F:maj	32.446	.	voice	4F 4a 4cc
=19	=19	=19	=19	=19	=19
1I	D:maj	32.891	.	voice	1D 1f# 1a
=20	=20	=20	=20	=20	=20
2I	D:maj	34.668	.	voice	2D 2f# 2a
4IV	G:maj	35.557	.	voice	4G 4b 4dd
4-III	F:maj	36.001	.	voice	4F 4a 4cc
=21	=21	=21	=21	=21	=21
1I	D:maj	36.445	newline	voice	1D 1f# 1a
=22	=22	=22	=22	=22	=22
2I	D:maj	38.216	.	voice	2D 2f# 2a
4IV	G:maj	39.102	.	voice	4G 4b 4dd
4-III	F:maj	39.544	.	voice	4F 4a 4cc
=23	=23	=23	=23	=23	=23
1I	D:maj	39.987	.	voice	1D 1f# 1a
=24	=24	=24	=24	=24	=24
2I	D:maj	41.758	.	voice	2D 2f# 2a
4IV	G:maj	42.643	.	voice	4G 4b 4dd
4-III	F:maj	43.086	.	voice	4F 4a 4cc
=25	=25	=25	=25	=25	=25
*>B_chorus	*>B_chorus	*>B_chorus	*>B_chorus	*>B_chorus	*>B_chorus
1-III	F:maj	43.529	newline	voice	1F 1a 1cc
=26	=26	=26	=26	=26	=26
1-VIm7	B-:7	45.29	.	voice	1B- 1dd 1ff 1aa
=27	=27	=27	=27	=27	=27
1iv	G:min	47.052	.	voice	1G 1b- 1dd
=28	=28	=28	=28	=28	=28
1-VII	C:maj	48.814	.	voice	1C 1e 1g
=29	=29	=29	=29	=29	=29
1-III	F:maj	50.575	newline	voice	1F 1a 1cc
=30	=30	=30	=30	=30	=30
1-VIm7	B-:7	52.332	.	voice	1B- 1dd 1ff 1aa
=31	=31	=31	=31	=31	=31
1iv	G:min	54.089	.	voice	1G 1b- 1dd
=32	=32	=32	=32	=32	=32
1-VII	C:maj	55.845	.	voice	1C 1e 1g
=33	=33	=33	=33	=33	=33
*>A4_verse	*>A4_verse	*>A4_verse	*>A4_verse	*>A4_verse	*>A4_verse
1I	D:maj	57.602	newline	voice	1D 1f# 1a
=34	=34	=34	=34	=34	=34
2I	D:maj	59.37	.	voice	2D 2f# 2a
4IV	G:maj	60.253	.	voice	4G 4b 4dd
4-III	F:maj	60.695	.	voice	4F 4a 4cc
=35	=35	=35	=35	=35	=35
1I	D:maj	61.137	.	voice	1D 1f# 1a
=36	=36	=36	=36	=36	=36
2I	D:maj	62.905	.	voice	2D 2f# 2a
4IV	G:maj	63.789	.	voice	4G 4b 4dd
4-III	F:maj	64.231	.	voice	4F 4a 4cc
=37	=37	=37	=37	=37	=37
1I	D:maj	64.673	newline	voice	1D 1f# 1a
=38	=38	=38	=38	=38	=38
2I	D:maj	66.431	.	voice	2D 2f# 2a
4IV	G:maj	67.31	.	voice	4G 4b 4dd
4-III	F:maj	67.749	.	voice	4F 4a 4cc
=39	=39	=39	=39	=39	=39
1I	D:maj	68.188	.	voice	1D 1f# 1a
=40	=40	=40	=40	=40	=40
2I	D:maj	69.946	.	voice	2D 2f# 2a
4IV	G:maj	70.825	.	voice	4G 4b 4dd
4-III	F:maj	71.265	.	voice	4F 4a 4cc
=41	=41	=41	=41	=41	=41
1I	D:maj	71.704	newline	voice	1D 1f# 1a
=42	=42	=42	=42	=42	=42
2I	D:maj	73.456	.	voice	2D 2f# 2a
4IV	G:maj	74.331	.	voice	4G 4b 4dd
4-III	F:maj	74.769	.	voice	4F 4a 4cc
=43	=43	=43	=43	=43	=43
1I	D:maj	75.207	.	voice	1D 1f# 1a
=44	=44	=44	=44	=44	=44
2I	D:maj	76.958	.	voice	2D 2f# 2a
4IV	G:maj	77.834	.	voice	4G 4b 4dd
4-III	F:maj	78.272	.	voice	4F 4a 4cc
=45	=45	=45	=45	=45	=45
1I	D:maj	78.71	newline	voice	1D 1f# 1a
=46	=46	=46	=46	=46	=46
2I	D:maj	80.451	.	voice	2D 2f# 2a
4IV	G:maj	81.321	.	voice	4G 4b 4dd
4-III	F:maj	81.756	.	voice	4F 4a 4cc
=47	=47	=47	=47	=47	=47
1I	D:maj	82.192	.	voice	1D 1f# 1a
=48	=48	=48	=48	=48	=48
2I	D:maj	83.933	.	voice	2D 2f# 2a
4IV	G:maj	84.803	.	voice	4G 4b 4dd
4-III	F:maj	85.238	.	voice	4F 4a 4cc
=49	=49	=49	=49	=49	=49
*>B_chorus	*>B_chorus	*>B_chorus	*>B_chorus	*>B_chorus	*>B_chorus
1-III	F:maj	85.674	newline	voice	1F 1a 1cc
=50	=50	=50	=50	=50	=50
1-VI	B-:maj	87.413	.	voice	1B- 1dd 1ff
=51	=51	=51	=51	=51	=51
1ivm7	G:min7	89.153	.	voice	1G 1b- 1dd 1ff#
=52	=52	=52	=52	=52	=52
1-VII	C:maj	90.892	.	voice	1C 1e 1g
=53	=53	=53	=53	=53	=53
1-III	F:maj	92.632	newline	voice	1F 1a 1cc
=54	=54	=54	=54	=54	=54
1-VI	B-:maj	94.367	.	voice	1B- 1dd 1ff
=55	=55	=55	=55	=55	=55
1ivm7	G:min7	96.102	.	voice	1G 1b- 1dd 1ff#
=56	=56	=56	=56	=56	=56
1-VII	C:maj	97.837	.	voice	1C 1e 1g
=57	=57	=57	=57	=57	=57
*>A3_verse	*>A3_verse	*>A3_verse	*>A3_verse	*>A3_verse	*>A3_verse
1I	D:maj	99.571	newline	voice	1D 1f# 1a
=58	=58	=58	=58	=58	=58
2I	D:maj	101.328	.	voice	2D 2f# 2a
4IV	G:maj	102.207	.	voice	4G 4b 4dd
4-III	F:maj	102.646	.	voice	4F 4a 4cc
=59	=59	=59	=59	=59	=59
1I	D:maj	103.085	.	voice	1D 1f# 1a
=60	=60	=60	=60	=60	=60
2I	D:maj	104.842	.	voice	2D 2f# 2a
4IV	G:maj	105.72	.	voice	4G 4b 4dd
4-III	F:maj	106.16	.	voice	4F 4a 4cc
=61	=61	=61	=61	=61	=61
*>C_solo	*>C_solo	*>C_solo	*>C_solo	*>C_solo	*>C_solo
1I	D:maj	106.599	newline	saxophone	1D 1f# 1a
=62	=62	=62	=62	=62	=62
2I	D:maj	108.338	.	saxophone	2D 2f# 2a
4IV	G:maj	109.207	.	saxophone	4G 4b 4dd
4-III	F:maj	109.642	.	saxophone	4F 4a 4cc
=63	=63	=63	=63	=63	=63
1I	D:maj	110.077	.	saxophone	1D 1f# 1a
=64	=64	=64	=64	=64	=64
2I	D:maj	111.815	.	saxophone	2D 2f# 2a
4IV	G:maj	112.685	.	saxophone	4G 4b 4dd
4-III	F:maj	113.119	.	saxophone	4F 4a 4cc
=65	=65	=65	=65	=65	=65
2IV	G:maj	113.554	newline	saxophone	2G 2b 2dd
2V	A:maj	114.445	.	saxophone	2A 2cc# 2ee
=66	=66	=66	=66	=66	=66
2IV	G:maj	115.335	.	saxophone	2G 2b 2dd
2V	A:maj	116.226	.	saxophone	2A 2cc# 2ee
=67	=67	=67	=67	=67	=67
2IV	G:maj	117.117	.	saxophone	2G 2b 2dd
2V	A:maj	118.007	.	saxophone	2A 2cc# 2ee
=68	=68	=68	=68	=68	=68
2-VI	B-:maj	118.898	.	saxophone	2B- 2dd 2ff
4v	A:min	119.789	.	saxophone	4A 4cc 4ee
4IV	G:maj	120.234	.	saxophone	4G 4b 4dd
=69	=69	=69	=69	=69	=69
*>A_verse	*>A_verse	*>A_verse	*>A_verse	*>A_verse	*>A_verse
1I	D:maj	120.679	newline	voice	1D 1f# 1a
=70	=70	=70	=70	=70	=70
2I	D:maj	122.447	.	voice	2D 2f# 2a
4IV	G:maj	123.331	.	voice	4G 4b 4dd
4-III	F:maj	123.773	.	voice	4F 4a 4cc
=71	=71	=71	=71	=71	=71
1I	D:maj	124.215	.	voice	1D 1f# 1a
=72	=72	=72	=72	=72	=72
2I	D:maj	125.983	.	voice	2D 2f# 2a
4IV	G:maj	126.866	.	voice	4G 4b 4dd
4-III	F:maj	127.308	.	voice	4F 4a 4cc
=73	=73	=73	=73	=73	=73
1I	D:maj	127.75	newline	voice	1D 1f# 1a
=74	=74	=74	=74	=74	=74
2I	D:maj	129.508	.	voice	2D 2f# 2a
4IV	G:maj	130.387	.	voice	4G 4b 4dd
4-III	F:maj	130.826	.	voice	4F 4a 4cc
=75	=75	=75	=75	=75	=75
1I	D:maj	131.266	.	voice	1D 1f# 1a
=76	=76	=76	=76	=76	=76
2I	D:maj	133.023	.	voice	2D 2f# 2a
4IV	G:maj	133.902	.	voice	4G 4b 4dd
4-III	F:maj	134.342	.	voice	4F 4a 4cc
=77	=77	=77	=77	=77	=77
1I	D:maj	134.781	newline	voice	1D 1f# 1a
=78	=78	=78	=78	=78	=78
2I	D:maj	136.515	.	voice	2D 2f# 2a
4IV	G:maj	137.382	.	voice	4G 4b 4dd
4-III	F:maj	137.816	.	voice	4F 4a 4cc
=79	=79	=79	=79	=79	=79
1I	D:maj	138.249	.	voice	1D 1f# 1a
=80	=80	=80	=80	=80	=80
2I	D:maj	139.983	.	voice	2D 2f# 2a
4IV	G:maj	140.85	.	voice	4G 4b 4dd
4-III	F:maj	141.284	.	voice	4F 4a 4cc
=81	=81	=81	=81	=81	=81
*>B_chorus	*>B_chorus	*>B_chorus	*>B_chorus	*>B_chorus	*>B_chorus
1-III	F:maj	141.717	newline	voice	1F 1a 1cc
=82	=82	=82	=82	=82	=82
1-VI	B-:maj	143.445	.	voice	1B- 1dd 1ff
=83	=83	=83	=83	=83	=83
1ivm7	G:min7	145.173	.	voice	1G 1b- 1dd 1ff#
=84	=84	=84	=84	=84	=84
1-VII	C:maj	146.9	.	voice	1C 1e 1g
=85	=85	=85	=85	=85	=85
1-III	F:maj	148.628	newline	voice	1F 1a 1cc
=86	=86	=86	=86	=86	=86
1-VI	B-:maj	150.356	.	voice	1B- 1dd 1ff
=87	=87	=87	=87	=87	=87
1ivm7	G:min7	152.084	.	voice	1G 1b- 1dd 1ff#
=88	=88	=88	=88	=88	=88
1-VII	C:maj	153.812	.	voice	1C 1e 1g
=89	=89	=89	=89	=89	=89
*>A5_outro	*>A5_outro	*>A5_outro	*>A5_outro	*>A5_outro	*>A5_outro
1I	D:maj	155.54	newline	voice	1D 1f# 1a
=90	=90	=90	=90	=90	=90
2I	D:maj	157.294	.	voice	2D 2f# 2a
4IV	G:maj	158.172	.	voice	4G 4b 4dd
4-III	F:maj	158.61	.	voice	4F 4a 4cc
=91	=91	=91	=91	=91	=91
1I	D:maj	159.049	.	voice	1D 1f# 1a
=92	=92	=92	=92	=92	=92
2I	D:maj	160.804	.	voice	2D 2f# 2a
4IV	G:maj	161.681	.	voice	4G 4b 4dd
4-III	F:maj	162.12	.	voice	4F 4a 4cc
=93	=93	=93	=93	=93	=93
1I	D:maj	162.558	newline	voice	1D 1f# 1a
=94	=94	=94	=94	=94	=94
2I	D:maj	163.638	.	voice	2D 2f# 2a
4IV	G:maj	164.178	.	voice	4G 4b 4dd
4-III	F:maj	164.448	.	voice	4F 4a 4cc
=95	=95	=95	=95	=95	=95
1I	D:maj	164.718	.	voice	1D 1f# 1a
=96	=96	=96	=96	=96	=96
2I	D:maj	165.798	.	voice	2D 2f# 2a
4IV	G:maj	166.338	.	voice	4G 4b 4dd
4-III	F:maj	166.608	.	voice	4F 4a 4cc
1r;	N	166.878	.	r	1r;
1r;	N	169.699	.	r	1r;
*-	*-	*-	*-	*-	*-
!!!OTL: Get Ready
!!!COC: Rare Earth
!!!BillboardChartDate: 1970/06/06
!!!BillboardPeak: 4
!!!BillboardWeeksOnChart: 20
!!!SampleTargetRank: 6
!!!SampleActualRank: 6
!!!SampleID#: 1220
!!!RDF**harmony: **recip + pitch class of root + harmonic quality
!!!RDF**harte: Chris Harte's syntax, used by MIREX
!!!RDF**phrase: newline = linebreak in original McGill transcription
!!!RDF**timestamp: McGill audio timestamp in seconds
!!!RDF**leadinstrument: original McGill primary instrumentation annotation
!!!RDT: 2017/01/12/
!!!ENC: Nathaniel Condit-Schultz
!!!EST: Awating manual error checking and editing.
